; generated by PrusaSlicer 2.3.0+win64 on 2021-12-03 at 05:16:29 UTC

; 

; external perimeters extrusion width = 0.60mm
; perimeters extrusion width = 0.50mm
; infill extrusion width = 0.50mm
; solid infill extrusion width = 0.50mm
; top infill extrusion width = 0.45mm
; first layer extrusion width = 0.42mm

; external perimeters extrusion width = 0.45mm
; perimeters extrusion width = 0.45mm
; infill extrusion width = 0.45mm
; solid infill extrusion width = 0.45mm
; top infill extrusion width = 0.40mm
; first layer extrusion width = 0.42mm

M73 P0 R71
M73 Q0 S71
M201 X1000 Y1000 Z200 E5000 ; sets maximum accelerations, mm/sec^2
M203 X200 Y200 Z12 E120 ; sets maximum feedrates, mm/sec
M204 P1250 R1250 T1250 ; sets acceleration (P, T) and retract acceleration (R), mm/sec^2
M205 X8.00 Y8.00 Z0.40 E4.50 ; sets the jerk limits, mm/sec
M205 S0 T0 ; sets the minimum extruding and travel feed rate, mm/sec
M107
;TYPE:Custom
M862.3 P "MK3S" ; printer model check
M862.1 P0.4 ; nozzle diameter check
M115 U3.9.2 ; tell printer latest fw version
G90 ; use absolute coordinates
M83 ; extruder relative mode
M104 S215 ; set extruder temp
M140 S60 ; set bed temp
M190 S60 ; wait for bed temp
M109 S215 ; wait for extruder temp
G28 W ; home all without mesh bed level
G80 ; mesh bed leveling
G1 Y-3.0 F1000.0 ; go outside print area
G92 E0.0
G1 X60.0 E9.0 F1000.0 ; intro line
G1 X100.0 E12.5 F1000.0 ; intro line
G92 E0.0
M221 S95

; Don't change E values below. Excessive value can damage the printer.

M907 E538 ; set extruder motor current
G21 ; set units to millimeters
G90 ; use absolute coordinates
M83 ; use relative distances for extrusion
M900 K0.05 ; Filament gcode LA 1.5
M900 K30 ; Filament gcode LA 1.0
;LAYER_CHANGE
;Z:0.2
;HEIGHT:0.2
;BEFORE_LAYER_CHANGE
G92 E0.0
;0.2


G1 E-0.80000 F2100.000
G1 Z0.400 F10800.000
;AFTER_LAYER_CHANGE
;0.2
G1 X85.235 Y69.026
G1 Z0.200
G1 E0.80000 F2100.000
M204 S1000
;TYPE:Skirt
;WIDTH:0.42
G1 F1200.000
G1 X86.175 Y68.304 E0.03716
G1 X87.111 Y67.886 E0.03215
G1 X87.611 Y67.741 E0.01633
G1 X88.633 Y67.619 E0.03228
G1 X161.326 Y67.619 E2.27922
G1 X162.380 Y67.739 E0.03327
G1 X162.884 Y67.884 E0.01645
G1 X163.831 Y68.307 E0.03251
G1 X164.781 Y69.041 E0.03764
G1 X165.451 Y69.877 E0.03359
G1 X165.705 Y70.327 E0.01621
G1 X166.080 Y71.294 E0.03251
G1 X166.236 Y72.423 E0.03574
G1 X166.239 Y137.514 E2.04087
G1 X166.084 Y138.690 E0.03720
G1 X165.711 Y139.659 E0.03256
G1 X165.454 Y140.116 E0.01645
G1 X164.767 Y140.973 E0.03443
G1 X163.825 Y141.696 E0.03721
G1 X162.889 Y142.114 E0.03215
G1 X162.389 Y142.259 E0.01633
G1 X161.367 Y142.381 E0.03229
G1 X88.674 Y142.381 E2.27922
G1 X87.463 Y142.228 E0.03827
G1 X86.488 Y141.855 E0.03274
G1 X86.020 Y141.594 E0.01680
G1 X85.168 Y140.907 E0.03430
G1 X84.454 Y139.979 E0.03674
G1 X84.040 Y139.058 E0.03164
G1 X83.885 Y138.542 E0.01689
G1 X83.761 Y137.512 E0.03252
G1 X83.761 Y72.532 E2.03741
G1 X83.914 Y71.321 E0.03827
G1 X84.287 Y70.346 E0.03274
G1 X84.548 Y69.878 E0.01680
G1 X85.197 Y69.073 E0.03242
; printing object top.stl id:1 copy 0
;WIPE_START
G1 F8640.000
G1 X86.175 Y68.304 E-0.28716
G1 X87.111 Y67.886 E-0.23676
G1 X87.611 Y67.741 E-0.12025
G1 X88.109 Y67.682 E-0.11582
;WIPE_END
G1 E-0.04000 F2100.000
G1 Z0.600 F10800.000
G1 X117.364 Y114.527
G1 Z0.200
G1 E0.80000 F2100.000
;TYPE:Perimeter
G1 F1200.000
G1 X117.739 Y114.371 E0.01273
G1 X118.090 Y114.325 E0.01110
G1 X134.450 Y114.325 E0.51293
G1 X134.801 Y114.371 E0.01110
G1 X135.176 Y114.527 E0.01273
G1 X135.498 Y114.774 E0.01273
G1 X135.745 Y115.096 E0.01274
G1 X135.901 Y115.471 E0.01274
G1 X135.947 Y115.822 E0.01110
G1 X135.947 Y132.182 E0.51293
M73 P0 R70
G1 X135.901 Y132.533 E0.01110
G1 X135.745 Y132.908 E0.01273
G1 X135.498 Y133.230 E0.01274
G1 X135.176 Y133.477 E0.01273
G1 X134.801 Y133.633 E0.01274
G1 X134.450 Y133.679 E0.01110
G1 X118.090 Y133.679 E0.51293
G1 X117.739 Y133.633 E0.01110
G1 X117.364 Y133.477 E0.01273
G1 X117.042 Y133.230 E0.01273
G1 X116.795 Y132.908 E0.01274
G1 X116.639 Y132.533 E0.01273
G1 X116.593 Y132.182 E0.01110
G1 X116.593 Y115.822 E0.51293
G1 X116.639 Y115.471 E0.01110
G1 X116.795 Y115.096 E0.01274
G1 X117.042 Y114.774 E0.01274
G1 X117.316 Y114.563 E0.01085
G1 X117.546 Y114.862 F10800.000
;TYPE:External perimeter
G1 F1200.000
G1 X117.838 Y114.739 E0.00994
G1 X118.115 Y114.702 E0.00877
G1 X134.425 Y114.702 E0.51138
G1 X134.702 Y114.739 E0.00877
G1 X134.986 Y114.856 E0.00962
G1 X135.229 Y115.043 E0.00962
G1 X135.416 Y115.286 E0.00962
G1 X135.533 Y115.570 E0.00962
G1 X135.570 Y115.847 E0.00877
G1 X135.570 Y132.157 E0.51138
G1 X135.533 Y132.434 E0.00877
G1 X135.416 Y132.718 E0.00962
G1 X135.229 Y132.961 E0.00962
G1 X134.986 Y133.148 E0.00962
G1 X134.702 Y133.265 E0.00962
G1 X134.425 Y133.302 E0.00877
G1 X118.115 Y133.302 E0.51138
G1 X117.838 Y133.265 E0.00877
G1 X117.554 Y133.148 E0.00962
G1 X117.311 Y132.961 E0.00962
G1 X117.124 Y132.718 E0.00962
G1 X117.007 Y132.434 E0.00962
G1 X116.970 Y132.157 E0.00877
G1 X116.970 Y115.847 E0.51138
G1 X117.007 Y115.570 E0.00877
G1 X117.124 Y115.286 E0.00962
G1 X117.311 Y115.043 E0.00962
G1 X117.498 Y114.899 E0.00742
G1 X117.544 Y114.545 F10800.000
;WIPE_START
G1 F8640.000
G1 X117.838 Y114.739 E-0.08665
G1 X118.115 Y114.702 E-0.06460
G1 X120.752 Y114.702 E-0.60875
;WIPE_END
G1 E-0.04000 F2100.000
G1 Z0.600 F10800.000
G1 X136.939 Y115.520
G1 Z0.200
G1 E0.80000 F2100.000
;TYPE:Perimeter
G1 F1200.000
G1 X137.115 Y115.096 E0.01437
G1 X137.362 Y114.774 E0.01274
G1 X137.684 Y114.527 E0.01273
G1 X138.059 Y114.371 E0.01273
G1 X138.410 Y114.325 E0.01110
G1 X154.770 Y114.325 E0.51293
G1 X155.121 Y114.371 E0.01110
G1 X155.496 Y114.527 E0.01273
G1 X155.818 Y114.774 E0.01274
G1 X156.065 Y115.096 E0.01273
G1 X156.221 Y115.471 E0.01273
G1 X156.267 Y115.822 E0.01110
G1 X156.267 Y132.182 E0.51293
G1 X156.221 Y132.533 E0.01110
G1 X156.065 Y132.908 E0.01273
G1 X155.818 Y133.230 E0.01273
G1 X155.496 Y133.477 E0.01274
G1 X155.121 Y133.633 E0.01273
G1 X154.770 Y133.679 E0.01110
G1 X138.410 Y133.679 E0.51293
G1 X138.059 Y133.633 E0.01110
G1 X137.684 Y133.477 E0.01273
G1 X137.362 Y133.230 E0.01273
G1 X137.115 Y132.908 E0.01274
G1 X136.959 Y132.533 E0.01274
G1 X136.913 Y132.181 E0.01112
G1 X136.939 Y115.580 E0.52052
G1 X137.316 Y115.595 F10800.000
;TYPE:External perimeter
G1 F1200.000
G1 X137.444 Y115.286 E0.01048
G1 X137.631 Y115.043 E0.00962
G1 X137.874 Y114.856 E0.00962
G1 X138.158 Y114.739 E0.00962
G1 X138.435 Y114.702 E0.00877
G1 X154.745 Y114.702 E0.51138
G1 X155.022 Y114.739 E0.00877
G1 X155.306 Y114.856 E0.00962
G1 X155.549 Y115.043 E0.00962
G1 X155.736 Y115.286 E0.00962
G1 X155.853 Y115.570 E0.00962
G1 X155.890 Y115.847 E0.00877
G1 X155.890 Y132.157 E0.51138
G1 X155.853 Y132.434 E0.00877
G1 X155.736 Y132.718 E0.00962
G1 X155.549 Y132.961 E0.00962
G1 X155.306 Y133.148 E0.00962
G1 X155.022 Y133.265 E0.00962
G1 X154.745 Y133.302 E0.00877
G1 X138.435 Y133.302 E0.51138
G1 X138.158 Y133.265 E0.00877
G1 X137.874 Y133.148 E0.00962
G1 X137.631 Y132.961 E0.00962
G1 X137.444 Y132.718 E0.00962
G1 X137.327 Y132.434 E0.00962
G1 X137.290 Y132.157 E0.00878
G1 X137.316 Y115.655 E0.51740
G1 X137.080 Y115.359 F10800.000
;WIPE_START
G1 F8640.000
G1 X137.444 Y115.286 E-0.09011
G1 X137.631 Y115.043 E-0.07086
G1 X137.874 Y114.856 E-0.07086
G1 X138.158 Y114.739 E-0.07086
G1 X138.435 Y114.702 E-0.06460
G1 X140.136 Y114.702 E-0.39271
;WIPE_END
G1 E-0.04000 F2100.000
G1 Z0.600 F10800.000
G1 X115.581 Y115.471
G1 Z0.200
G1 E0.80000 F2100.000
;TYPE:Perimeter
G1 F1200.000
G1 X115.627 Y115.822 E0.01110
G1 X115.627 Y132.182 E0.51293
G1 X115.581 Y132.533 E0.01110
G1 X115.425 Y132.908 E0.01274
G1 X115.178 Y133.230 E0.01274
G1 X114.856 Y133.477 E0.01273
G1 X114.481 Y133.633 E0.01274
G1 X114.130 Y133.679 E0.01110
G1 X97.770 Y133.679 E0.51293
G1 X97.419 Y133.633 E0.01110
G1 X97.044 Y133.477 E0.01273
G1 X96.722 Y133.230 E0.01273
G1 X96.475 Y132.908 E0.01274
G1 X96.319 Y132.533 E0.01273
G1 X96.273 Y132.182 E0.01110
G1 X96.273 Y115.822 E0.51293
G1 X96.319 Y115.471 E0.01110
G1 X96.475 Y115.096 E0.01273
G1 X96.722 Y114.774 E0.01274
G1 X97.044 Y114.527 E0.01273
G1 X97.419 Y114.371 E0.01273
G1 X97.770 Y114.325 E0.01110
G1 X114.130 Y114.325 E0.51293
M73 P1 R70
M73 Q1 S71
G1 X114.481 Y114.371 E0.01110
G1 X114.856 Y114.527 E0.01274
G1 X115.178 Y114.774 E0.01273
G1 X115.425 Y115.096 E0.01274
G1 X115.558 Y115.416 E0.01085
G1 X115.210 Y115.560 F10800.000
;TYPE:External perimeter
G1 F1200.000
G1 X115.250 Y115.847 E0.00909
G1 X115.250 Y132.157 E0.51138
G1 X115.213 Y132.434 E0.00877
G1 X115.096 Y132.718 E0.00962
G1 X114.909 Y132.961 E0.00962
G1 X114.666 Y133.148 E0.00962
G1 X114.382 Y133.265 E0.00962
G1 X114.105 Y133.302 E0.00877
G1 X97.795 Y133.302 E0.51138
G1 X97.518 Y133.265 E0.00877
G1 X97.234 Y133.148 E0.00962
G1 X96.991 Y132.961 E0.00962
G1 X96.804 Y132.718 E0.00962
G1 X96.687 Y132.434 E0.00962
G1 X96.650 Y132.157 E0.00877
G1 X96.650 Y115.847 E0.51138
G1 X96.687 Y115.570 E0.00877
G1 X96.804 Y115.286 E0.00962
G1 X96.991 Y115.043 E0.00962
G1 X97.234 Y114.856 E0.00962
G1 X97.518 Y114.739 E0.00962
G1 X97.795 Y114.702 E0.00877
G1 X114.105 Y114.702 E0.51138
G1 X114.382 Y114.739 E0.00877
G1 X114.666 Y114.856 E0.00962
G1 X114.909 Y115.043 E0.00962
G1 X115.096 Y115.286 E0.00962
G1 X115.187 Y115.505 E0.00742
G1 X115.490 Y115.633 F10800.000
;WIPE_START
G1 F8640.000
G1 X115.250 Y115.847 E-0.08040
G1 X115.250 Y118.790 E-0.67960
;WIPE_END
G1 E-0.04000 F2100.000
G1 Z0.600 F10800.000
G1 X88.226 Y108.853
G1 Z0.200
G1 E0.80000 F2100.000
;TYPE:Perimeter
G1 F1200.000
G1 X88.730 Y108.787 E0.01592
G1 X161.270 Y108.787 E2.27447
G1 X161.774 Y108.853 E0.01592
G1 X162.195 Y109.028 E0.01429
G1 X162.557 Y109.305 E0.01429
G1 X162.834 Y109.667 E0.01429
G1 X163.009 Y110.088 E0.01429
G1 X163.075 Y110.592 E0.01592
G1 X163.075 Y137.412 E0.84095
G1 X163.009 Y137.916 E0.01592
G1 X162.834 Y138.337 E0.01429
G1 X162.557 Y138.699 E0.01429
G1 X162.195 Y138.976 E0.01429
G1 X161.774 Y139.151 E0.01429
G1 X161.270 Y139.217 E0.01592
G1 X88.730 Y139.217 E2.27447
M73 Q1 S70
G1 X88.226 Y139.151 E0.01592
G1 X87.805 Y138.976 E0.01429
G1 X87.443 Y138.699 E0.01429
G1 X87.166 Y138.337 E0.01429
G1 X86.991 Y137.916 E0.01429
G1 X86.925 Y137.412 E0.01592
G1 X86.925 Y110.592 E0.84095
G1 X86.991 Y110.088 E0.01592
G1 X87.166 Y109.667 E0.01429
G1 X87.443 Y109.305 E0.01429
G1 X87.805 Y109.028 E0.01429
G1 X88.171 Y108.876 E0.01241
G1 X88.128 Y108.486 F10800.000
;TYPE:External perimeter
G1 F1200.000
G1 X88.705 Y108.410 E0.01826
G1 X161.295 Y108.410 E2.27602
G1 X161.872 Y108.486 E0.01826
G1 X162.385 Y108.698 E0.01741
G1 X162.826 Y109.036 E0.01741
G1 X163.164 Y109.477 E0.01741
G1 X163.376 Y109.990 E0.01741
G1 X163.452 Y110.567 E0.01826
G1 X163.452 Y137.437 E0.84250
G1 X163.376 Y138.014 E0.01826
G1 X163.164 Y138.527 E0.01741
G1 X162.826 Y138.968 E0.01741
G1 X162.385 Y139.306 E0.01741
G1 X161.872 Y139.518 E0.01741
G1 X161.295 Y139.594 E0.01826
G1 X88.705 Y139.594 E2.27602
G1 X88.128 Y139.518 E0.01826
G1 X87.615 Y139.306 E0.01741
G1 X87.174 Y138.968 E0.01741
G1 X86.836 Y138.527 E0.01741
G1 X86.624 Y138.014 E0.01741
G1 X86.548 Y137.437 E0.01826
G1 X86.548 Y110.567 E0.84250
G1 X86.624 Y109.990 E0.01826
G1 X86.836 Y109.477 E0.01741
G1 X87.174 Y109.036 E0.01741
G1 X87.615 Y108.698 E0.01741
G1 X88.072 Y108.509 E0.01552
G1 X88.410 Y108.769 F10800.000
;WIPE_START
G1 F8640.000
G1 X88.705 Y108.410 E-0.14786
G1 X91.356 Y108.410 E-0.61214
;WIPE_END
G1 E-0.04000 F2100.000
G1 Z0.600 F10800.000
G1 X162.962 Y110.647
G1 Z0.200
G1 E0.80000 F2100.000
;TYPE:Solid infill
;WIDTH:0.420906
G1 F1200.000
G1 X161.405 Y109.090 E0.06919
G1 X161.252 Y109.070 E0.00486
G1 X160.850 Y109.070 E0.01262
G1 X162.792 Y111.012 E0.08631
G1 X162.792 Y111.546 E0.01680
G1 X160.316 Y109.070 E0.11007
G1 X159.781 Y109.070 E0.01680
G1 X162.792 Y112.081 E0.13383
G1 X162.792 Y112.615 E0.01680
G1 X159.247 Y109.070 E0.15759
G1 X158.712 Y109.070 E0.01680
G1 X162.792 Y113.150 E0.18135
G1 X162.792 Y113.684 E0.01680
G1 X158.178 Y109.070 E0.20511
G1 X157.643 Y109.070 E0.01680
G1 X162.792 Y114.219 E0.22887
G1 X162.792 Y114.753 E0.01680
G1 X157.108 Y109.070 E0.25263
G1 X156.574 Y109.070 E0.01680
G1 X162.792 Y115.288 E0.27639
G1 X162.792 Y115.823 E0.01680
G1 X156.039 Y109.070 E0.30015
G1 X155.505 Y109.070 E0.01680
G1 X162.792 Y116.357 E0.32391
G1 X162.792 Y116.892 E0.01680
G1 X154.970 Y109.070 E0.34767
G1 X154.436 Y109.070 E0.01680
G1 X162.792 Y117.426 E0.37143
G1 X162.792 Y117.961 E0.01680
G1 X153.901 Y109.070 E0.39519
G1 X153.367 Y109.070 E0.01680
G1 X162.792 Y118.495 E0.41895
G1 X162.792 Y119.030 E0.01680
G1 X152.832 Y109.070 E0.44271
G1 X152.298 Y109.070 E0.01680
G1 X162.792 Y119.564 E0.46647
G1 X162.792 Y120.099 E0.01680
G1 X151.763 Y109.070 E0.49023
G1 X151.228 Y109.070 E0.01680
G1 X162.792 Y120.634 E0.51399
G1 X162.792 Y121.168 E0.01680
G1 X150.694 Y109.070 E0.53775
G1 X150.159 Y109.070 E0.01680
G1 X155.184 Y114.094 E0.22332
G1 X155.639 Y114.280 E0.01544
G1 X156.020 Y114.572 E0.01511
G1 X156.312 Y114.953 E0.01511
G1 X156.498 Y115.408 E0.01544
G1 X162.792 Y121.703 E0.27977
G1 X162.792 Y122.237 E0.01680
G1 X156.550 Y115.995 E0.27746
G1 X156.550 Y116.530 E0.01680
G1 X162.792 Y122.772 E0.27746
G1 X162.792 Y123.306 E0.01680
G1 X156.550 Y117.064 E0.27746
G1 X156.550 Y117.599 E0.01680
G1 X162.792 Y123.841 E0.27746
G1 X162.792 Y124.375 E0.01680
G1 X156.550 Y118.133 E0.27746
G1 X156.550 Y118.668 E0.01680
G1 X162.792 Y124.910 E0.27746
G1 X162.792 Y125.445 E0.01680
G1 X156.550 Y119.202 E0.27746
M73 P1 R69
G1 X156.550 Y119.737 E0.01680
G1 X162.792 Y125.979 E0.27746
G1 X162.792 Y126.514 E0.01680
G1 X156.550 Y120.271 E0.27746
M73 P2 R69
M73 Q2 S70
G1 X156.550 Y120.806 E0.01680
G1 X162.792 Y127.048 E0.27746
G1 X162.792 Y127.583 E0.01680
G1 X156.550 Y121.341 E0.27746
G1 X156.550 Y121.875 E0.01680
G1 X162.792 Y128.117 E0.27746
G1 X162.792 Y128.652 E0.01680
G1 X156.550 Y122.410 E0.27746
G1 X156.550 Y122.944 E0.01680
G1 X162.792 Y129.186 E0.27746
G1 X162.792 Y129.721 E0.01680
G1 X156.550 Y123.479 E0.27746
G1 X156.550 Y124.013 E0.01680
G1 X162.792 Y130.256 E0.27746
G1 X162.792 Y130.790 E0.01680
G1 X156.550 Y124.548 E0.27746
G1 X156.550 Y125.082 E0.01680
G1 X162.792 Y131.325 E0.27746
G1 X162.792 Y131.859 E0.01680
G1 X156.550 Y125.617 E0.27746
G1 X156.550 Y126.151 E0.01680
G1 X162.792 Y132.394 E0.27746
G1 X162.792 Y132.928 E0.01680
G1 X156.550 Y126.686 E0.27746
G1 X156.550 Y127.221 E0.01680
G1 X162.792 Y133.463 E0.27746
G1 X162.792 Y133.997 E0.01680
G1 X156.550 Y127.755 E0.27746
G1 X156.550 Y128.290 E0.01680
G1 X162.792 Y134.532 E0.27746
G1 X162.792 Y135.067 E0.01680
G1 X156.550 Y128.824 E0.27746
G1 X156.550 Y129.359 E0.01680
G1 X162.792 Y135.601 E0.27746
G1 X162.792 Y136.136 E0.01680
G1 X156.550 Y129.893 E0.27746
G1 X156.550 Y130.428 E0.01680
G1 X162.792 Y136.670 E0.27746
G1 X162.792 Y137.205 E0.01680
G1 X156.550 Y130.962 E0.27746
G1 X156.550 Y131.497 E0.01680
G1 X162.752 Y137.699 E0.27567
G1 X162.733 Y137.842 E0.00453
G1 X162.624 Y138.106 E0.00897
G1 X156.550 Y132.032 E0.26998
G1 X156.550 Y132.200 E0.00530
G1 X156.507 Y132.524 E0.01025
G1 X162.410 Y138.426 E0.26235
G1 X162.355 Y138.497 E0.00282
G1 X162.124 Y138.675 E0.00916
G1 X156.367 Y132.918 E0.25586
G1 X156.312 Y133.051 E0.00451
G1 X156.162 Y133.247 E0.00778
G1 X161.763 Y138.849 E0.24899
G1 X161.700 Y138.875 E0.00216
G1 X161.307 Y138.927 E0.01246
G1 X155.902 Y133.522 E0.24023
G1 X155.590 Y133.745 E0.01205
G1 X160.780 Y138.934 E0.23067
G1 X160.245 Y138.934 E0.01680
G1 X155.212 Y133.901 E0.22371
G1 X154.738 Y133.962 E0.01501
G1 X159.711 Y138.934 E0.22101
G1 X159.176 Y138.934 E0.01680
G1 X154.204 Y133.962 E0.22101
G1 X153.669 Y133.962 E0.01680
G1 X158.641 Y138.934 E0.22101
G1 X158.107 Y138.934 E0.01680
G1 X153.135 Y133.962 E0.22101
G1 X152.600 Y133.962 E0.01680
G1 X157.572 Y138.934 E0.22101
G1 X157.038 Y138.934 E0.01680
G1 X152.066 Y133.962 E0.22101
G1 X151.531 Y133.962 E0.01680
G1 X156.503 Y138.934 E0.22101
G1 X155.969 Y138.934 E0.01680
G1 X150.996 Y133.962 E0.22101
G1 X150.462 Y133.962 E0.01680
G1 X155.434 Y138.934 E0.22101
G1 X154.900 Y138.934 E0.01680
G1 X149.927 Y133.962 E0.22101
G1 X149.393 Y133.962 E0.01680
G1 X154.365 Y138.934 E0.22101
G1 X153.830 Y138.934 E0.01680
