; generated by PrusaSlicer 2.3.0+win64 on 2021-12-03 at 05:10:37 UTC

; 

; external perimeters extrusion width = 0.45mm
; perimeters extrusion width = 0.45mm
; infill extrusion width = 0.45mm
; solid infill extrusion width = 0.45mm
; top infill extrusion width = 0.40mm
; support material extrusion width = 0.35mm
; first layer extrusion width = 0.42mm

; external perimeters extrusion width = 0.45mm
; perimeters extrusion width = 0.45mm
; infill extrusion width = 0.45mm
; solid infill extrusion width = 0.45mm
; top infill extrusion width = 0.40mm
; support material extrusion width = 0.35mm
; first layer extrusion width = 0.42mm

; external perimeters extrusion width = 0.45mm
; perimeters extrusion width = 0.45mm
; infill extrusion width = 0.45mm
; solid infill extrusion width = 0.45mm
; top infill extrusion width = 0.40mm
; support material extrusion width = 0.35mm
; first layer extrusion width = 0.42mm

M73 P0 R28
M73 Q0 S28
M201 X1000 Y1000 Z200 E5000 ; sets maximum accelerations, mm/sec^2
M203 X200 Y200 Z12 E120 ; sets maximum feedrates, mm/sec
M204 P1250 R1250 T1250 ; sets acceleration (P, T) and retract acceleration (R), mm/sec^2
M205 X8.00 Y8.00 Z0.40 E4.50 ; sets the jerk limits, mm/sec
M205 S0 T0 ; sets the minimum extruding and travel feed rate, mm/sec
M107
;TYPE:Custom
M862.3 P "MK3S" ; printer model check
M862.1 P0.4 ; nozzle diameter check
M115 U3.9.2 ; tell printer latest fw version
G90 ; use absolute coordinates
M83 ; extruder relative mode
M104 S215 ; set extruder temp
M140 S60 ; set bed temp
M190 S60 ; wait for bed temp
M109 S215 ; wait for extruder temp
G28 W ; home all without mesh bed level
G80 ; mesh bed leveling
G1 Y-3.0 F1000.0 ; go outside print area
G92 E0.0
G1 X60.0 E9.0 F1000.0 ; intro line
G1 X100.0 E12.5 F1000.0 ; intro line
G92 E0.0
M221 S95

; Don't change E values below. Excessive value can damage the printer.

M907 E538 ; set extruder motor current
G21 ; set units to millimeters
G90 ; use absolute coordinates
M83 ; use relative distances for extrusion
M900 K0.05 ; Filament gcode LA 1.5
M900 K30 ; Filament gcode LA 1.0
;LAYER_CHANGE
;Z:0.2
;HEIGHT:0.2
;BEFORE_LAYER_CHANGE
G92 E0.0
;0.2


G1 E-0.80000 F2100.000
G1 Z0.400 F10800.000
;AFTER_LAYER_CHANGE
;0.2
G1 X95.910 Y79.475
G1 Z0.200
G1 E0.80000 F2100.000
M204 S1000
;TYPE:Skirt
;WIDTH:0.42
G1 F1200.000
G1 X96.333 Y78.744 E0.02649
G1 X98.633 Y76.262 E0.10611
G1 X99.219 Y75.848 E0.02249
G1 X99.902 Y75.628 E0.02249
G1 X120.774 Y75.428 E0.65446
G1 X124.863 Y75.606 E0.12833
G1 X125.703 Y75.835 E0.02731
G1 X150.869 Y88.420 E0.88221
G1 X151.418 Y88.838 E0.02166
G1 X153.729 Y91.346 E0.10691
G1 X154.096 Y92.018 E0.02402
G1 X154.231 Y92.776 E0.02414
G1 X154.231 Y117.374 E0.77127
G1 X154.090 Y118.169 E0.02532
G1 X153.867 Y118.627 E0.01597
G1 X153.551 Y119.027 E0.01597
G1 X151.190 Y121.259 E0.10187
G1 X150.752 Y121.575 E0.01692
G1 X125.215 Y134.305 E0.89467
G1 X124.570 Y134.402 E0.02048
G1 X103.421 Y134.572 E0.66311
G1 X100.218 Y134.395 E0.10059
G1 X99.602 Y134.261 E0.01977
G1 X98.856 Y133.826 E0.02708
G1 X96.386 Y131.485 E0.10670
G1 X95.958 Y130.818 E0.02484
G1 X95.774 Y130.047 E0.02484
G1 X95.769 Y80.274 E1.56060
M73 P1 R28
M73 Q1 S28
G1 X95.899 Y79.534 E0.02355
; printing object v.stl id:2 copy 0
;WIPE_START
G1 F8640.000
G1 X96.333 Y78.744 E-0.20816
G1 X97.958 Y76.991 E-0.55184
;WIPE_END
G1 E-0.04000 F2100.000
G1 Z0.600 F10800.000
G1 X123.196 Y117.363
G1 Z0.200
G1 E0.80000 F2100.000
;TYPE:Support material
G1 F1200.000
G1 X123.196 Y92.807 E0.76994
G1 X123.950 Y92.807 E0.02365
G1 X123.950 Y117.193 E0.76462
G1 X124.704 Y117.193 E0.02365
G1 X124.704 Y92.807 E0.76462
G1 X125.332 Y92.807 E0.01967
G1 X125.332 Y90.500 E0.07234
G1 X125.458 Y90.500 E0.00397
G1 X125.458 Y119.500 E0.90929
G1 X126.213 Y119.500 E0.02365
G1 X126.213 Y90.500 E0.90929
G1 X126.967 Y90.500 E0.02365
G1 X126.967 Y119.500 E0.90929
G1 X127.721 Y119.500 E0.02365
G1 X127.721 Y90.500 E0.90929
G1 X128.475 Y90.500 E0.02365
G1 X128.475 Y119.670 E0.91462
;WIPE_START
G1 F8640.000
G1 X128.475 Y116.379 E-0.76000
;WIPE_END
G1 E-0.04000 F2100.000
G1 Z0.600 F10800.000
G1 X151.854 Y117.363
G1 Z0.200
G1 E0.80000 F2100.000
G1 F1200.000
G1 X151.854 Y92.807 E0.76994
G1 X151.100 Y92.807 E0.02365
G1 X151.100 Y117.193 E0.76462
G1 X150.346 Y117.193 E0.02365
G1 X150.346 Y92.807 E0.76462
M73 Q2 S28
G1 X149.718 Y92.807 E0.01967
G1 X149.718 Y90.500 E0.07234
G1 X149.592 Y90.500 E0.00397
G1 X149.592 Y119.500 E0.90929
M73 P2 R28
G1 X148.837 Y119.500 E0.02365
G1 X148.837 Y90.500 E0.90929
G1 X148.083 Y90.500 E0.02365
G1 X148.083 Y119.500 E0.90929
G1 X147.329 Y119.500 E0.02365
G1 X147.329 Y90.500 E0.90929
G1 X146.575 Y90.500 E0.02365
G1 X146.575 Y119.500 E0.90929
G1 X145.821 Y119.500 E0.02365
G1 X145.821 Y113.351 E0.19282
G1 X145.582 Y113.525 E0.00926
G1 X145.348 Y113.621 E0.00794
G1 X145.067 Y113.666 E0.00895
G1 X145.067 Y119.500 E0.18294
G1 X144.312 Y119.500 E0.02365
G1 X144.312 Y113.669 E0.18285
G1 X143.558 Y113.669 E0.02365
G1 X143.558 Y119.500 E0.18285
G1 X142.804 Y119.500 E0.02365
G1 X142.804 Y113.669 E0.18285
G1 X142.050 Y113.669 E0.02365
G1 X142.050 Y119.500 E0.18285
G1 X141.296 Y119.500 E0.02365
G1 X141.296 Y113.669 E0.18285
G1 X140.542 Y113.669 E0.02365
G1 X140.542 Y119.500 E0.18285
G1 X139.787 Y119.500 E0.02365
G1 X139.787 Y113.669 E0.18285
G1 X139.033 Y113.669 E0.02365
G1 X139.033 Y119.500 E0.18285
G1 X138.279 Y119.500 E0.02365
G1 X138.279 Y113.669 E0.18285
G1 X137.525 Y113.669 E0.02365
G1 X137.525 Y119.500 E0.18285
G1 X136.771 Y119.500 E0.02365
G1 X136.771 Y113.669 E0.18285
G1 X136.017 Y113.669 E0.02365
G1 X136.017 Y119.500 E0.18285
G1 X135.263 Y119.500 E0.02365
G1 X135.263 Y113.669 E0.18285
G1 X134.508 Y113.669 E0.02365
G1 X134.508 Y119.500 E0.18285
G1 X133.754 Y119.500 E0.02365
G1 X133.754 Y113.669 E0.18285
G1 X133.000 Y113.669 E0.02365
G1 X133.000 Y119.500 E0.18285
G1 X132.246 Y119.500 E0.02365
G1 X132.246 Y113.669 E0.18285
G1 X131.492 Y113.669 E0.02365
G1 X131.492 Y119.500 E0.18285
G1 X130.738 Y119.500 E0.02365
G1 X130.738 Y113.669 E0.18285
G1 X129.983 Y113.666 E0.02365
G1 X129.983 Y119.500 E0.18294
G1 X129.229 Y119.500 E0.02365
G1 X129.229 Y113.351 E0.19282
G1 X129.000 Y113.057 E0.01166
G1 X128.889 Y112.771 E0.00962
G1 X128.856 Y112.507 E0.00836
G1 X128.856 Y97.493 E0.47072
G1 X128.890 Y97.229 E0.00836
G1 X129.000 Y96.943 E0.00962
G1 X129.229 Y96.649 E0.01166
G1 X129.229 Y90.500 E0.19282
G1 X129.983 Y90.500 E0.02365
G1 X129.983 Y96.334 E0.18294
M73 Q3 S28
G1 X130.738 Y96.331 E0.02365
G1 X130.738 Y90.500 E0.18285
M73 P3 R28
G1 X131.492 Y90.500 E0.02365
G1 X131.492 Y96.331 E0.18285
G1 X132.246 Y96.331 E0.02365
G1 X132.246 Y90.500 E0.18285
G1 X133.000 Y90.500 E0.02365
G1 X133.000 Y96.331 E0.18285
G1 X133.754 Y96.331 E0.02365
G1 X133.754 Y90.500 E0.18285
G1 X134.508 Y90.500 E0.02365
G1 X134.508 Y96.331 E0.18285
G1 X135.263 Y96.331 E0.02365
G1 X135.263 Y90.500 E0.18285
G1 X136.017 Y90.500 E0.02365
G1 X136.017 Y96.331 E0.18285
G1 X136.771 Y96.331 E0.02365
G1 X136.771 Y90.500 E0.18285
G1 X137.525 Y90.500 E0.02365
G1 X137.525 Y96.331 E0.18285
G1 X138.279 Y96.331 E0.02365
G1 X138.279 Y90.500 E0.18285
G1 X139.033 Y90.500 E0.02365
G1 X139.033 Y96.331 E0.18285
G1 X139.787 Y96.331 E0.02365
G1 X139.787 Y90.500 E0.18285
G1 X140.542 Y90.500 E0.02365
G1 X140.542 Y96.331 E0.18285
G1 X141.296 Y96.331 E0.02365
G1 X141.296 Y90.500 E0.18285
G1 X142.050 Y90.500 E0.02365
G1 X142.050 Y96.331 E0.18285
M73 P3 R27
G1 X142.804 Y96.331 E0.02365
G1 X142.804 Y90.500 E0.18285
G1 X143.558 Y90.500 E0.02365
G1 X143.558 Y96.331 E0.18285
G1 X144.312 Y96.331 E0.02365
G1 X144.312 Y90.500 E0.18285
G1 X145.067 Y90.500 E0.02365
G1 X145.067 Y96.334 E0.18294
M73 Q3 S27
G1 X145.348 Y96.379 E0.00894
G1 X145.582 Y96.475 E0.00794
G1 X145.821 Y96.649 E0.00926
G1 X145.821 Y90.330 E0.19814
;WIPE_START
G1 F8640.000
G1 X145.821 Y93.621 E-0.76000
;WIPE_END
G1 E-0.04000 F2100.000
G1 Z0.600 F10800.000
G1 X138.853 Y102.323
G1 Z0.200
G1 E0.80000 F2100.000
;TYPE:Perimeter
G1 F1200.000
G1 X140.848 Y108.124 E0.19233
G1 X138.570 Y108.124 E0.07142
G1 X137.974 Y106.254 E0.06152
G1 X137.377 Y108.124 E0.06152
G1 X135.128 Y108.124 E0.07053
G1 X137.122 Y102.323 E0.19233
G1 X138.793 Y102.323 E0.05239
G1 X138.584 Y102.700 F10800.000
;TYPE:External perimeter
G1 F1200.000
G1 X140.319 Y107.747 E0.16732
G1 X138.846 Y107.747 E0.04621
G1 X138.330 Y106.131 E0.05318
G1 X138.234 Y105.652 E0.01530
G1 X138.189 Y105.191 E0.01451
G1 X137.974 Y104.503 E0.02261
G1 X137.759 Y105.191 E0.02261
G1 X137.713 Y105.652 E0.01451
G1 X137.617 Y106.131 E0.01530
G1 X137.102 Y107.747 E0.05318
G1 X135.656 Y107.747 E0.04532
G1 X137.392 Y102.700 E0.16732
G1 X138.524 Y102.700 E0.03551
G1 X138.921 Y102.485 F10800.000
;WIPE_START
G1 F8640.000
G1 X139.627 Y105.801 E-0.76000
;WIPE_END
G1 E-0.04000 F2100.000
G1 Z0.600 F10800.000
G1 X144.966 Y97.532
G1 Z0.200
G1 E0.80000 F2100.000
;TYPE:Perimeter
G1 F1200.000
G1 X144.990 Y97.535 E0.00074
G1 X144.993 Y97.559 E0.00074
G1 X144.990 Y112.465 E0.46738
G1 X130.060 Y112.465 E0.46811
G1 X130.060 Y97.535 E0.46811
G1 X144.906 Y97.532 E0.46549
G1 X145.264 Y97.261 F10800.000
;TYPE:External perimeter
G1 F1200.000
G1 X145.355 Y97.417 E0.00566
G1 X145.370 Y97.534 E0.00370
G1 X145.370 Y112.466 E0.46819
G1 X145.355 Y112.583 E0.00370
G1 X145.264 Y112.739 E0.00566
G1 X145.108 Y112.830 E0.00566
G1 X144.991 Y112.845 E0.00370
G1 X130.059 Y112.845 E0.46819
G1 X129.942 Y112.830 E0.00370
G1 X129.786 Y112.739 E0.00566
G1 X129.695 Y112.583 E0.00566
G1 X129.680 Y112.466 E0.00370
G1 X129.680 Y97.534 E0.46819
G1 X129.695 Y97.417 E0.00370
G1 X129.786 Y97.261 E0.00566
G1 X129.942 Y97.170 E0.00566
G1 X130.059 Y97.155 E0.00370
G1 X144.991 Y97.155 E0.46819
G1 X145.108 Y97.170 E0.00370
G1 X145.217 Y97.224 E0.00380
G1 X145.212 Y97.433 F10800.000
;WIPE_START
G1 F8640.000
G1 X145.355 Y97.417 E-0.05471
G1 X145.370 Y97.534 E-0.02726
G1 X145.370 Y100.470 E-0.67803
;WIPE_END
G1 E-0.04000 F2100.000
G1 Z0.600 F10800.000
M73 Q4 S27
G1 X144.877 Y98.415
G1 Z0.200
G1 E0.80000 F2100.000
;TYPE:Solid infill
;WIDTH:0.421958
G1 F1200.000
G1 X144.280 Y97.818 E0.02660
G1 X143.744 Y97.818 E0.01689
G1 X144.707 Y98.781 E0.04293
G1 X144.707 Y99.317 E0.01689
G1 X143.208 Y97.818 E0.06682
M73 P4 R27
G1 X142.672 Y97.818 E0.01689
G1 X144.707 Y99.853 E0.09071
G1 X144.707 Y100.389 E0.01689
G1 X142.136 Y97.818 E0.11460
G1 X141.600 Y97.818 E0.01689
G1 X144.707 Y100.925 E0.13850
G1 X144.707 Y101.461 E0.01689
G1 X141.064 Y97.818 E0.16239
G1 X140.528 Y97.818 E0.01689
G1 X144.707 Y101.997 E0.18628
G1 X144.707 Y102.533 E0.01689
G1 X139.992 Y97.818 E0.21017
G1 X139.456 Y97.818 E0.01689
G1 X144.707 Y103.069 E0.23407
G1 X144.707 Y103.605 E0.01689
G1 X138.920 Y97.818 E0.25796
G1 X138.384 Y97.818 E0.01689
G1 X144.707 Y104.141 E0.28185
G1 X144.707 Y104.678 E0.01689
G1 X137.847 Y97.818 E0.30574
G1 X137.311 Y97.818 E0.01689
G1 X144.707 Y105.214 E0.32964
G1 X144.707 Y105.750 E0.01689
G1 X136.775 Y97.818 E0.35353
G1 X136.239 Y97.818 E0.01689
G1 X144.707 Y106.286 E0.37742
G1 X144.707 Y106.822 E0.01689
G1 X135.703 Y97.818 E0.40131
G1 X135.167 Y97.818 E0.01689
G1 X144.707 Y107.358 E0.42521
G1 X144.707 Y107.894 E0.01689
G1 X134.631 Y97.818 E0.44910
G1 X134.095 Y97.818 E0.01689
G1 X138.317 Y102.040 E0.18819
G1 X137.781 Y102.040 E0.01689
G1 X133.559 Y97.818 E0.18819
G1 X133.023 Y97.818 E0.01689
G1 X137.245 Y102.040 E0.18819
G1 X136.921 Y102.040 E0.01023
G1 X136.867 Y102.197 E0.00524
G1 X132.487 Y97.818 E0.19520
G1 X131.951 Y97.818 E0.01689
G1 X136.729 Y102.596 E0.21298
G1 X136.592 Y102.995 E0.01329
G1 X131.415 Y97.818 E0.23076
G1 X130.879 Y97.818 E0.01689
G1 X136.455 Y103.394 E0.24854
G1 X136.318 Y103.793 E0.01329
G1 X130.343 Y97.818 E0.26632
G1 X130.343 Y98.354 E0.01689
G1 X136.181 Y104.192 E0.26020
G1 X136.044 Y104.591 E0.01329
G1 X130.343 Y98.890 E0.25409
G1 X130.343 Y99.426 E0.01689
G1 X135.906 Y104.990 E0.24798
G1 X135.769 Y105.389 E0.01329
G1 X130.343 Y99.962 E0.24186
G1 X130.343 Y100.498 E0.01689
G1 X135.632 Y105.787 E0.23575
G1 X135.495 Y106.186 E0.01329
G1 X130.343 Y101.034 E0.22964
G1 X130.343 Y101.570 E0.01689
G1 X135.358 Y106.585 E0.22352
G1 X135.221 Y106.984 E0.01329
G1 X130.343 Y102.106 E0.21741
G1 X130.343 Y102.642 E0.01689
G1 X135.084 Y107.383 E0.21130
G1 X134.946 Y107.782 E0.01329
G1 X130.173 Y103.009 E0.21275
;WIPE_START
G1 F8640.000
G1 X132.501 Y105.336 E-0.76000
;WIPE_END
G1 E-0.04000 F2100.000
G1 Z0.600 F10800.000
G1 X139.168 Y102.891
G1 Z0.200
G1 E0.80000 F2100.000
G1 F1200.000
G1 X144.707 Y108.430 E0.24688
G1 X144.707 Y108.966 E0.01689
G1 X139.723 Y103.981 E0.22217
G1 X140.003 Y104.798 E0.02723
G1 X144.707 Y109.502 E0.20965
G1 X144.707 Y110.038 E0.01689
G1 X140.284 Y105.615 E0.19713
G1 X140.565 Y106.432 E0.02723
G1 X144.707 Y110.574 E0.18461
M73 Q5 S27
G1 X144.707 Y111.110 E0.01689
G1 X140.846 Y107.249 E0.17209
M73 P5 R27
G1 X141.127 Y108.066 E0.02723
G1 X144.707 Y111.646 E0.15957
G1 X144.707 Y112.182 E0.01689
G1 X140.931 Y108.406 E0.16829
G1 X140.395 Y108.406 E0.01689
G1 X144.171 Y112.182 E0.16829
G1 X143.635 Y112.182 E0.01689
G1 X139.859 Y108.406 E0.16829
G1 X139.323 Y108.406 E0.01689
G1 X143.099 Y112.182 E0.16829
G1 X142.563 Y112.182 E0.01689
G1 X138.787 Y108.406 E0.16829
G1 X138.363 Y108.406 E0.01336
G1 X138.165 Y107.784 E0.02059
G1 X137.875 Y107.494 E0.01292
G1 X137.745 Y107.901 E0.01344
G1 X142.027 Y112.182 E0.19083
G1 X141.491 Y112.182 E0.01689
G1 X137.616 Y108.307 E0.17272
G1 X137.584 Y108.406 E0.00329
G1 X137.179 Y108.406 E0.01276
G1 X140.955 Y112.182 E0.16829
G1 X140.419 Y112.182 E0.01689
G1 X136.643 Y108.406 E0.16829
G1 X136.107 Y108.406 E0.01689
G1 X139.883 Y112.182 E0.16829
G1 X139.347 Y112.182 E0.01689
G1 X135.401 Y108.237 E0.17585
;WIPE_START
G1 F8640.000
G1 X137.729 Y110.564 E-0.76000
;WIPE_END
G1 E-0.04000 F2100.000
G1 Z0.600 F10800.000
G1 X138.980 Y112.352
G1 Z0.200
G1 E0.80000 F2100.000
G1 F1200.000
G1 X130.343 Y103.714 E0.38498
G1 X130.343 Y104.250 E0.01689
G1 X138.275 Y112.182 E0.35353
G1 X137.738 Y112.182 E0.01689
G1 X130.343 Y104.787 E0.32963
G1 X130.343 Y105.323 E0.01689
G1 X137.202 Y112.182 E0.30574
G1 X136.666 Y112.182 E0.01689
G1 X130.343 Y105.859 E0.28185
G1 X130.343 Y106.395 E0.01689
G1 X136.130 Y112.182 E0.25796
G1 X135.594 Y112.182 E0.01689
G1 X130.343 Y106.931 E0.23406
G1 X130.343 Y107.467 E0.01689
G1 X135.058 Y112.182 E0.21017
G1 X134.522 Y112.182 E0.01689
G1 X130.343 Y108.003 E0.18628
G1 X130.343 Y108.539 E0.01689
G1 X133.986 Y112.182 E0.16239
G1 X133.450 Y112.182 E0.01689
G1 X130.343 Y109.075 E0.13849
G1 X130.343 Y109.611 E0.01689
G1 X132.914 Y112.182 E0.11460
G1 X132.378 Y112.182 E0.01689
G1 X130.343 Y110.147 E0.09071
G1 X130.343 Y110.683 E0.01689
G1 X131.842 Y112.182 E0.06682
G1 X131.306 Y112.182 E0.01689
G1 X130.343 Y111.219 E0.04292
G1 X130.343 Y111.755 E0.01689
G1 X130.940 Y112.352 E0.02659
;WIPE_START
G1 F8640.000
G1 X130.343 Y111.755 E-0.19484
G1 X130.343 Y111.219 E-0.12377
G1 X131.306 Y112.182 E-0.31447
G1 X131.842 Y112.182 E-0.12377
G1 X131.832 Y112.172 E-0.00314
;WIPE_END
G1 E-0.04000 F2100.000
G1 Z0.600 F10800.000
G1 X137.974 Y106.066
G1 Z0.200
G1 E0.80000 F2100.000
;TYPE:Gap fill
;WIDTH:0.193862
G1 F1200.000
G1 X137.974 Y105.461 E0.00759
;WIDTH:0.147103
G1 X137.974 Y105.235 E0.00196
G1 X137.974 Y105.235 F10800.000
;WIDTH:0.102546
G1 F1200.000
G1 X137.974 Y105.195 E0.00020
; stop printing object v.stl id:2 copy 0
; printing object c.stl id:0 copy 0
;WIPE_START
G1 F8640.000
G1 X137.974 Y105.235 E-0.00939
;WIPE_END
G1 E-0.79061 F2100.000
G1 Z0.600 F10800.000
G1 X126.804 Y104.838
G1 Z0.200
G1 E0.80000 F2100.000
;TYPE:Support material
;WIDTH:0.42
G1 F1200.000
G1 X126.804 Y80.282 E0.76994
G1 X126.050 Y80.282 E0.02365
G1 X126.050 Y104.668 E0.76462
G1 X125.296 Y104.668 E0.02365
G1 X125.296 Y80.282 E0.76462
G1 X124.668 Y80.282 E0.01967
G1 X124.668 Y77.975 E0.07234
G1 X124.542 Y77.975 E0.00397
G1 X124.542 Y106.975 E0.90929
G1 X123.787 Y106.975 E0.02365
G1 X123.787 Y77.975 E0.90929
M73 P6 R27
M73 Q6 S27
G1 X123.033 Y77.975 E0.02365
G1 X123.033 Y106.975 E0.90929
G1 X122.279 Y106.975 E0.02365
G1 X122.279 Y77.975 E0.90929
G1 X121.525 Y77.975 E0.02365
G1 X121.525 Y106.975 E0.90929
G1 X120.771 Y106.975 E0.02365
G1 X120.771 Y100.826 E0.19282
